CUSTOMPROGRAMNAME.svg

<?xml version="1.0" encoding="UTF-8" standalone="no"?>
<svg
   width="64"
   height="64"
   version="1"
   id="svg28"
   xmlns="http://www.w3.org/2000/svg"
   xmlns:svg="http://www.w3.org/2000/svg">
  <defs
     id="defs32" />
  <g
     id="layer2"
     style="display:inline">
    <path
       style="fill:#b7b7b7;stroke-width:0.999997"
       d="M 12,6 H 51.999999 V 26 H 12 Z"
       id="path2" />
    <rect
       style="fill:#4f4f4f;stroke-width:0.999997"
       width="55.999996"
       height="34"
       x="4"
       y="24"
       rx="2.8"
       ry="2.8339999"
       id="rect4" />
    <g
       style="opacity:0.4"
       transform="scale(2)"
       id="g12">
      <rect
         width="16"
         height="2"
         x="8"
         y="16"
         id="rect6" />
      <rect
         width="12"
         height="2"
         x="10"
         y="20"
         id="rect8" />
      <rect
         width="8"
         height="2"
         x="12"
         y="24"
         id="rect10" />
    </g>
    <path
       style="opacity:0.2;stroke-width:0.999997"
       d="m 4,55.167968 v 1 c 0,1.569999 1.2496029,2.832031 2.800781,2.832031 h 50.398437 c 1.549978,0 2.800781,-1.262032 2.800781,-2.832031 v -1 c 0,1.57 -1.250803,2.832031 -2.800781,2.832031 H 6.800781 C 5.2496029,57.999999 4,56.737968 4,55.167968 Z"
       id="path14" />
    <path
       style="opacity:0.2;fill:#ffffff;stroke-width:0.999997"
       d="M 12,6 V 7 H 51.999999 V 6 Z"
       id="path16" />
    <rect
       style="opacity:0.5;stroke-width:0.999997"
       width="10"
       height="6"
       x="16"
       y="10"
       id="rect24" />
    <rect
       style="opacity:0.5;stroke-width:0.999997"
       width="10"
       height="6"
       x="38"
       y="10"
       id="rect26" />
  </g>
  <g
     id="layer3"
     style="display:inline">
    <circle
       style="opacity:0.2;stroke-width:0.999997"
       cx="48"
       cy="47"
       r="16"
       id="circle18" />
    <circle
       style="fill:#3cd240;stroke-width:0.999997"
       cx="48"
       cy="46"
       r="16"
       id="circle20" />
  </g>
  <g
     id="layer1"
     style="display:inline">
    <path
       style="display:inline;fill:#ffffff;fill-opacity:1;stroke:#ffffff;stroke-width:1.41598;stroke-miterlimit:4;stroke-dasharray:none;stroke-opacity:1"
       d="m 45.999994,35.999997 v 8.000001 H 37.999993 V 48 h 8.000001 v 7.999999 h 4.000002 V 48 h 7.999999 v -4.000002 h -7.999999 v -8.000001 z"
       id="path34" />
  </g>
</svg>

<svg xmlns="http://www.w3.org/2000/svg" width="64" height="64" version="1.1">
 <rect style="opacity:0.2" width="56" height="34" x="4" y="26" rx="2.8" ry="2.8"/>
 <rect style="fill:#b7b7b7" width="40" height="20" x="12" y="7"/>
 <rect style="fill:#4f4f4f" width="56" height="34" x="4" y="25" rx="2.8" ry="2.8"/>
 <path style="fill:#ffffff;opacity:0.2" d="m12 7v1h40v-1z"/>
 <rect style="opacity:0.5" width="10" height="6" x="16" y="11"/>
 <rect style="opacity:0.5" width="10" height="6" x="38" y="11"/>
 <rect style="opacity:0.4" width="32" height="4" x="16" y="32"/>
 <rect style="opacity:0.4" width="24" height="4" x="20" y="40"/>
 <rect style="opacity:0.4" width="16" height="4" x="24" y="48"/>
 <circle style="opacity:0.2" cx="48" cy="47" r="16"/>
 <circle style="fill:#42b546" cx="48" cy="46" r="16"/>
 <path style="fill:#ffffff" d="M 46,36 V 44 H 38 V 48 L 46,48 46,56 H 50 L 50,48 58,48 V 44 H 50 V 36 Z"/>
 <path style="fill:#ffffff;opacity:0.1" d="M 6.8008 25 C 5.2496 25 4 26.25 4 27.801 L 4 28.801 C 4 27.25 5.2496 26 6.8008 26 L 57.199 26 C 58.75 26 60 27.25 60 28.801 L 60 27.801 C 60 26.25 58.75 25 57.199 25 L 6.8008 25 z"/>
</svg>
